tde/widget/wifi/icons/wifi-strength-1-alert.dark.svg

﻿<?xml version="1.0" encoding="utf-8"?>
<!DOCTYPE svg PUBLIC "-//W3C//DTD SVG 1.1//EN" "http://www.w3.org/Graphics/SVG/1.1/DTD/svg11.dtd">
<svg xmlns="http://www.w3.org/2000/svg" xmlns:xlink="http://www.w3.org/1999/xlink" version="1.1" baseProfile="full" width="240" height="240" viewBox="0 0 24.00 24.00" enable-background="new 0 0 24.00 24.00" xml:space="preserve">
	<path fill="#000000" fill-opacity="1" stroke-width="0.2" stroke-linejoin="round" d="M 12.0025,2.9978C 7.7875,3.0075 3.70125,4.41375 0.376253,7.0025C 4.41375,12.06 7.89125,16.3725 12.0113,21.4887C 14.4537,18.4475 16.675,15.6838 18.9988,12.7837L 18.9988,9.585L 15.605,13.8088C 14.4775,13.2813 13.2475,13.0075 12.0025,12.9975C 10.7525,13.0025 9.52125,13.2762 8.38875,13.8038L 3.27125,7.43625C 5.90875,5.85 8.92625,5.01 12.0025,5C 15.0737,5.015 18.0863,5.85875 20.7125,7.45125L 20.2734,7.9975L 22.8412,7.9975C 23.0859,7.7 23.4125,7.29 23.6475,7.0025C 20.3175,4.40875 16.2212,3.0025 12.0025,2.9978 Z M 21.0013,10L 21.0013,17.9975L 22.9975,17.9975L 22.9975,10M 21.0013,20L 21.0013,22.0025L 22.9975,22.0025L 22.9975,20"/>
</svg>

<svg xmlns="http://www.w3.org/2000/svg" baseProfile="full" width="240" height="240" viewBox="0 0 24 24" xml:space="preserve"><path d="M12.002 2.998A18.986 18.986 0 0 0 .377 7.003c4.038 5.057 7.515 9.37 11.635 14.486 2.443-3.041 4.664-5.805 6.988-8.705V9.585l-3.394 4.224a8.665 8.665 0 0 0-3.603-.811 8.632 8.632 0 0 0-3.613.806L3.27 7.436A17.047 17.047 0 0 1 12.003 5c3.07.015 6.083.859 8.71 2.451l-.44.546h2.568c.245-.297.572-.707.806-.994a18.98 18.98 0 0 0-11.644-4.005zm9 7.002v7.997h1.995V10m-1.996 10v2.003h1.996V20"/></svg>
